;FLAVOR:Marlin
;TIME:611
;Filament used: 0.464631m
;Layer height: 0.6
;Generated with Cura_SteamEngine 3.1.0
M104 S200
M109 S200
M82 ; absolute extrusion mode
G21 ;metric values
G90 ;absolute positioning
M82 ;set extruder to absolute mode
M107 ;start with the fan off
G28 X0 Y0 ;move X/Y to min endstops
G28 Z0 ;move Z to min endstops
G1 Z15.0 F9000 ;move the platform down 15mm
G92 E0 ;zero the extruded length
G1 F200 E6 ;extrude 6 mm of feed stock
G92 E0 ;zero the extruded length again
G1 F9000
;Put printing message on LCD screen
M117 Printing...
;LAYER_COUNT:7
;LAYER:0
M107
G0 F3600 X87.125 Y80.659 Z0.3
;TYPE:SKIRT
G1 F1800 X87.682 Y80.099 E0.01486
G1 X88.031 Y79.8 E0.0235
G1 X88.439 Y79.471 E0.03336
G1 X89.078 Y79.007 E0.04822
G1 X89.431 Y78.79 E0.05601
G1 X90.334 Y78.268 E0.07563
G1 X91.037 Y77.908 E0.09049
G1 X91.821 Y77.605 E0.1063
G1 X92.815 Y77.281 E0.12596
G1 X93.577 Y77.075 E0.14081
G1 X94.42 Y76.939 E0.15687
G1 X95.461 Y76.83 E0.17656
G1 X96.249 Y76.788 E0.19141
G1 X97.085 Y76.83 E0.20715
G1 X98.126 Y76.939 E0.22684
G1 X98.906 Y77.061 E0.24169
G1 X99.731 Y77.281 E0.25775
G1 X100.725 Y77.605 E0.27742
G1 X101.463 Y77.887 E0.29228
G1 X102.212 Y78.268 E0.30809
G1 X103.115 Y78.79 E0.32771
G1 X103.777 Y79.219 E0.34255
G1 X104.424 Y79.741 E0.35818
G1 X105.202 Y80.44 E0.37786
G1 X105.509 Y80.745 E0.386
G1 X106.334 Y80.268 E0.40392
G1 X107.037 Y79.908 E0.41878
G1 X107.821 Y79.605 E0.43459
G1 X108.815 Y79.281 E0.45426
G1 X109.577 Y79.075 E0.4691
G1 X110.42 Y78.939 E0.48517
G1 X111.461 Y78.83 E0.50486
G1 X112.249 Y78.788 E0.5197
G1 X113.085 Y78.83 E0.53544
G1 X114.126 Y78.939 E0.55513
G1 X114.906 Y79.061 E0.56998
G1 X115.731 Y79.281 E0.58605
G1 X116.725 Y79.605 E0.60571
G1 X117.463 Y79.887 E0.62057
G1 X118.212 Y80.268 E0.63638
G1 X119.115 Y80.79 E0.656
G1 X119.777 Y81.219 E0.67084
G1 X120.424 Y81.741 E0.68648
G1 X121.202 Y82.44 E0.70615
G1 X121.762 Y82.997 E0.72101
G1 X122.061 Y83.346 E0.72965
G1 X122.39 Y83.754 E0.73951
G1 X122.854 Y84.393 E0.75436
G1 X123.071 Y84.746 E0.76216
G1 X123.593 Y85.649 E0.78178
G1 X123.953 Y86.352 E0.79664
G1 X124.256 Y87.136 E0.81245
G1 X124.58 Y88.13 E0.83211
G1 X124.786 Y88.892 E0.84696
G1 X124.922 Y89.734 E0.863
G1 X125.031 Y90.774 E0.88267
G1 X125.073 Y91.562 E0.89752
G1 X125.031 Y92.399 E0.91328
G1 X124.922 Y93.44 E0.93297
G1 X124.8 Y94.22 E0.94782
G1 X124.581 Y95.043 E0.96384
G1 X124.368 Y95.696 E0.97676
G1 X124.424 Y95.741 E0.97811
G1 X125.202 Y96.44 E0.99779
G1 X125.762 Y96.997 E1.01264
G1 X126.061 Y97.346 E1.02129
G1 X126.39 Y97.754 E1.03115
G1 X126.854 Y98.393 E1.046
G1 X127.071 Y98.746 E1.0538
G1 X127.593 Y99.649 E1.07342
G1 X127.953 Y100.352 E1.08827
G1 X128.256 Y101.136 E1.10408
G1 X128.58 Y102.13 E1.12375
G1 X128.786 Y102.892 E1.1386
G1 X128.922 Y103.734 E1.15464
G1 X129.031 Y104.774 E1.17431
G1 X129.073 Y105.562 E1.18916
G1 X129.031 Y106.399 E1.20492
G1 X128.922 Y107.44 E1.22461
G1 X128.8 Y108.22 E1.23946
G1 X128.581 Y109.043 E1.25548
G1 X128.258 Y110.035 E1.2751
G1 X127.976 Y110.772 E1.28995
G1 X127.791 Y111.162 E1.29807
G1 X127.766 Y111.212 E1.29912
G1 X127.777 Y111.219 E1.29936
G1 X128.424 Y111.741 E1.315
G1 X129.202 Y112.44 E1.33468
G1 X129.762 Y112.997 E1.34953
G1 X130.061 Y113.346 E1.35818
G1 X130.39 Y113.754 E1.36804
G1 X130.854 Y114.393 E1.38289
G1 X131.071 Y114.746 E1.39069
G1 X131.593 Y115.649 E1.41031
G1 X131.953 Y116.352 E1.42516
G1 X132.256 Y117.136 E1.44097
G1 X132.58 Y118.13 E1.46064
G1 X132.786 Y118.892 E1.47549
G1 X132.922 Y119.734 E1.49153
G1 X133.031 Y120.774 E1.5112
G1 X133.073 Y121.562 E1.52604
G1 X133.031 Y122.399 E1.54181
G1 X132.922 Y123.44 E1.5615
G1 X132.8 Y124.22 E1.57635
G1 X132.581 Y125.043 E1.59237
G1 X132.258 Y126.035 E1.61199
G1 X131.976 Y126.772 E1.62684
G1 X131.791 Y127.162 E1.63496
G1 X131.553 Y127.629 E1.64482
G1 X131.159 Y128.313 E1.65966
G1 X130.912 Y128.673 E1.66788
G1 X130.297 Y129.519 E1.68755
G1 X129.801 Y130.134 E1.70241
G1 X129.209 Y130.728 E1.71819
G1 X128.432 Y131.428 E1.73786
G1 X127.819 Y131.926 E1.75272
G1 X127.115 Y132.386 E1.76854
G1 X126.212 Y132.908 E1.78815
G1 X125.509 Y133.268 E1.80301
G1 X124.725 Y133.571 E1.81882
G1 X123.731 Y133.895 E1.83849
G1 X122.969 Y134.101 E1.85334
G1 X122.126 Y134.237 E1.8694
G1 X121.085 Y134.346 E1.88909
G1 X120.297 Y134.388 E1.90393
G1 X119.461 Y134.346 E1.91968
G1 X118.42 Y134.237 E1.93937
G1 X117.64 Y134.115 E1.95422
G1 X117.053 Y133.958 E1.96565
G1 X117.031 Y134.399 E1.97395
G1 X116.922 Y135.44 E1.99364
G1 X116.8 Y136.22 E2.00849
G1 X116.581 Y137.043 E2.02451
G1 X116.258 Y138.035 E2.04414
G1 X115.976 Y138.772 E2.05898
G1 X115.791 Y139.162 E2.0671
G1 X115.553 Y139.629 E2.07696
G1 X115.159 Y140.313 E2.09181
G1 X114.912 Y140.673 E2.10002
G1 X114.297 Y141.519 E2.11969
G1 X113.801 Y142.134 E2.13456
G1 X113.209 Y142.728 E2.15033
G1 X112.432 Y143.428 E2.17
G1 X111.819 Y143.926 E2.18486
G1 X111.115 Y144.386 E2.20068
G1 X110.212 Y144.908 E2.2203
G1 X109.509 Y145.268 E2.23515
G1 X108.725 Y145.571 E2.25097
G1 X107.731 Y145.895 E2.27063
G1 X106.969 Y146.101 E2.28548
G1 X106.126 Y146.237 E2.30154
G1 X105.085 Y146.346 E2.32123
G1 X104.297 Y146.388 E2.33607
G1 X103.461 Y146.346 E2.35182
G1 X102.42 Y146.237 E2.37151
G1 X101.64 Y146.115 E2.38636
G1 X100.815 Y145.895 E2.40242
G1 X99.821 Y145.571 E2.42209
G1 X99.083 Y145.289 E2.43695
G1 X98.334 Y144.908 E2.45275
G1 X97.431 Y144.386 E2.47237
G1 X97.272 Y144.283 E2.47594
G1 X97.115 Y144.386 E2.47947
G1 X96.212 Y144.908 E2.49909
G1 X95.509 Y145.268 E2.51395
G1 X94.725 Y145.571 E2.52976
G1 X93.731 Y145.895 E2.54942
G1 X92.969 Y146.101 E2.56427
G1 X92.126 Y146.237 E2.58033
G1 X91.085 Y146.346 E2.60002
G1 X90.297 Y146.388 E2.61487
G1 X89.461 Y146.346 E2.63061
G1 X88.42 Y146.237 E2.6503
G1 X87.64 Y146.115 E2.66515
G1 X86.815 Y145.895 E2.68121
G1 X85.821 Y145.571 E2.70088
G1 X85.083 Y145.289 E2.71574
G1 X84.334 Y144.908 E2.73155
G1 X83.431 Y144.386 E2.75117
G1 X82.769 Y143.957 E2.76601
G1 X82.118 Y143.431 E2.78175
G1 X81.34 Y142.731 E2.80143
G1 X80.78 Y142.174 E2.81629
G1 X80.491 Y141.836 E2.82466
G1 X80.162 Y141.429 E2.8345
G1 X79.697 Y140.791 E2.84935
G1 X79.473 Y140.426 E2.85741
G1 X78.95 Y139.52 E2.87709
G1 X78.59 Y138.817 E2.89194
G1 X78.288 Y138.035 E2.90771
G1 X77.965 Y137.043 E2.92734
G1 X77.759 Y136.281 E2.94218
G1 X77.625 Y135.442 E2.95817
G1 X77.516 Y134.403 E2.97782
G1 X77.473 Y133.614 E2.99268
G1 X77.515 Y132.777 E3.00845
G1 X77.624 Y131.735 E3.02815
G1 X77.746 Y130.955 E3.043
G1 X77.965 Y130.132 E3.05902
G1 X78.288 Y129.14 E3.07865
G1 X78.57 Y128.403 E3.09349
G1 X78.952 Y127.652 E3.10934
G1 X79.475 Y126.747 E3.129
G1 X79.904 Y126.084 E3.14386
G1 X80.426 Y125.437 E3.15949
G1 X81.125 Y124.659 E3.17917
G1 X81.43 Y124.352 E3.18731
G1 X80.95 Y123.52 E3.20538
G1 X80.59 Y122.817 E3.22023
G1 X80.288 Y122.035 E3.236
G1 X79.965 Y121.043 E3.25563
G1 X79.759 Y120.281 E3.27047
G1 X79.625 Y119.442 E3.28646
G1 X79.516 Y118.403 E3.30611
G1 X79.473 Y117.614 E3.32097
G1 X79.515 Y116.777 E3.33674
G1 X79.624 Y115.735 E3.35644
G1 X79.746 Y114.955 E3.37129
G1 X79.965 Y114.132 E3.38731
G1 X80.178 Y113.479 E3.40023
G1 X80.118 Y113.431 E3.40168
G1 X79.34 Y112.731 E3.42137
G1 X78.78 Y112.174 E3.43622
G1 X78.491 Y111.836 E3.44459
G1 X78.162 Y111.429 E3.45443
G1 X77.697 Y110.791 E3.46928
G1 X77.473 Y110.426 E3.47734
G1 X76.95 Y109.52 E3.49702
G1 X76.59 Y108.817 E3.51187
G1 X76.288 Y108.035 E3.52764
G1 X75.965 Y107.043 E3.54727
G1 X75.759 Y106.281 E3.56212
G1 X75.625 Y105.442 E3.5781
G1 X75.516 Y104.403 E3.59775
G1 X75.473 Y103.614 E3.61261
G1 X75.515 Y102.777 E3.62838
G1 X75.624 Y101.735 E3.64808
G1 X75.746 Y100.955 E3.66293
G1 X75.965 Y100.132 E3.67895
G1 X76.288 Y99.14 E3.69858
G1 X76.57 Y98.403 E3.71342
G1 X76.952 Y97.652 E3.72927
G1 X77.475 Y96.747 E3.74893
G1 X77.904 Y96.084 E3.76379
G1 X78.426 Y95.437 E3.77943
G1 X79.125 Y94.659 E3.7991
G1 X79.682 Y94.099 E3.81396
G1 X80.031 Y93.8 E3.8226
G1 X80.439 Y93.471 E3.83246
G1 X81.078 Y93.007 E3.84731
G1 X81.431 Y92.79 E3.85511
G1 X82.334 Y92.268 E3.87473
G1 X83.037 Y91.908 E3.88959
G1 X83.661 Y91.667 E3.90217
G1 X83.625 Y91.442 E3.90646
G1 X83.516 Y90.403 E3.92611
G1 X83.473 Y89.614 E3.94097
G1 X83.515 Y88.777 E3.95673
G1 X83.624 Y87.735 E3.97644
G1 X83.746 Y86.955 E3.99129
G1 X83.965 Y86.132 E4.00731
G1 X84.288 Y85.14 E4.02694
G1 X84.57 Y84.403 E4.04178
G1 X84.952 Y83.652 E4.05763
G1 X85.475 Y82.747 E4.07729
G1 X85.904 Y82.084 E4.09215
G1 X86.426 Y81.437 E4.10778
G1 X87.125 Y80.659 E4.12746
G0 F3600 X87.422 Y80.926
G1 F1800 X87.965 Y80.382 E4.14192
G1 X88.282 Y80.112 E4.14975
G1 X88.69 Y79.783 E4.15961
G1 X89.632 Y79.136 E4.1811
G1 X90.535 Y78.614 E4.20072
G1 X91.22 Y78.265 E4.21518
G1 X91.945 Y77.985 E4.2298
G1 X92.939 Y77.661 E4.24947
G1 X93.681 Y77.461 E4.26393
G1 X94.461 Y77.337 E4.27878
G1 X95.502 Y77.228 E4.29847
G1 X96.27 Y77.188 E4.31294
G1 X97.044 Y77.228 E4.32752
G1 X98.085 Y77.337 E4.3472
G1 X98.844 Y77.457 E4.36166
G1 X99.607 Y77.661 E4.37652
G1 X100.601 Y77.985 E4.39618
G1 X101.319 Y78.261 E4.41065
G1 X102.011 Y78.614 E4.42526
G1 X102.914 Y79.136 E4.44488
G1 X103.559 Y79.555 E4.45935
G1 X104.157 Y80.038 E4.47381
G1 X104.935 Y80.737 E4.49348
G1 X105.456 Y81.257 E4.50733
G1 X105.632 Y81.136 E4.51135
G1 X106.535 Y80.614 E4.53097
G1 X107.22 Y80.265 E4.54543
G1 X107.945 Y79.985 E4.56005
G1 X108.939 Y79.661 E4.57972
G1 X109.681 Y79.461 E4.59417
G1 X110.461 Y79.337 E4.60903
G1 X111.502 Y79.228 E4.62872
G1 X112.27 Y79.188 E4.64318
G1 X113.044 Y79.228 E4.65776
G1 X114.085 Y79.337 E4.67745
G1 X114.844 Y79.457 E4.6919
G1 X115.607 Y79.661 E4.70676
G1 X116.601 Y79.985 E4.72643
G1 X117.319 Y80.261 E4.7409
G1 X118.011 Y80.614 E4.75551
G1 X118.914 Y81.136 E4.77513
G1 X119.559 Y81.555 E4.7896
G1 X120.157 Y82.038 E4.80406
G1 X120.935 Y82.737 E4.82373
G1 X121.479 Y83.28 E4.83819
G1 X121.749 Y83.597 E4.84602
G1 X122.078 Y84.005 E4.85588
G1 X122.725 Y84.947 E4.87738
G1 X123.247 Y85.85 E4.897
G1 X123.596 Y86.535 E4.91146
G1 X123.876 Y87.26 E4.92608
G1 X124.2 Y88.254 E4.94574
G1 X124.4 Y88.996 E4.9602
G1 X124.524 Y89.776 E4.97506
G1 X124.633 Y90.816 E4.99473
G1 X124.673 Y91.584 E5.00919
G1 X124.633 Y92.358 E5.02377
G1 X124.524 Y93.399 E5.04346
G1 X124.404 Y94.158 E5.05791
G1 X124.2 Y94.919 E5.07273
G1 X123.903 Y95.832 E5.09079
G1 X124.157 Y96.038 E5.09695
G1 X124.935 Y96.737 E5.11662
G1 X125.479 Y97.28 E5.13108
G1 X125.749 Y97.597 E5.13891
G1 X126.078 Y98.005 E5.14877
G1 X126.725 Y98.947 E5.17027
G1 X127.247 Y99.85 E5.18989
G1 X127.596 Y100.535 E5.20435
G1 X127.876 Y101.26 E5.21897
G1 X128.2 Y102.254 E5.23863
G1 X128.4 Y102.996 E5.25309
G1 X128.524 Y103.776 E5.26794
G1 X128.633 Y104.816 E5.28761
G1 X128.673 Y105.584 E5.30208
G1 X128.633 Y106.358 E5.31666
G1 X128.524 Y107.399 E5.33635
G1 X128.404 Y108.158 E5.3508
G1 X128.2 Y108.919 E5.36562
G1 X127.877 Y109.911 E5.38525
G1 X127.602 Y110.629 E5.39971
G1 X127.434 Y110.98 E5.40703
G1 X127.245 Y111.351 E5.41486
G1 X127.559 Y111.555 E5.42191
G1 X128.157 Y112.038 E5.43637
G1 X128.935 Y112.737 E5.45604
G1 X129.479 Y113.28 E5.4705
G1 X129.749 Y113.597 E5.47833
G1 X130.078 Y114.005 E5.48819
G1 X130.725 Y114.947 E5.50969
G1 X131.247 Y115.85 E5.52931
G1 X131.596 Y116.535 E5.54377
G1 X131.876 Y117.26 E5.55839
G1 X132.2 Y118.254 E5.57805
G1 X132.4 Y118.996 E5.59251
G1 X132.524 Y119.776 E5.60736
G1 X132.633 Y120.816 E5.62703
G1 X132.673 Y121.584 E5.6415
G1 X132.633 Y122.358 E5.65608
G1 X132.524 Y123.399 E5.67577
G1 X132.404 Y124.158 E5.69022
G1 X132.2 Y124.919 E5.70504
G1 X131.877 Y125.911 E5.72467
G1 X131.602 Y126.629 E5.73913
G1 X131.434 Y126.98 E5.74645
G1 X131.196 Y127.447 E5.75631
G1 X130.812 Y128.113 E5.77077
G1 X130.589 Y128.438 E5.77818
G1 X129.974 Y129.284 E5.79786
G1 X129.49 Y129.882 E5.81233
G1 X128.941 Y130.431 E5.82693
G1 X128.164 Y131.131 E5.84661
G1 X127.567 Y131.615 E5.86106
G1 X126.914 Y132.04 E5.87572
G1 X126.011 Y132.562 E5.89534
G1 X125.326 Y132.911 E5.9098
G1 X124.601 Y133.191 E5.92442
G1 X123.607 Y133.515 E5.94409
G1 X122.865 Y133.715 E5.95854
G1 X122.085 Y133.839 E5.9734
G1 X121.044 Y133.948 E5.99309
G1 X120.276 Y133.988 E6.00755
G1 X119.502 Y133.948 E6.02213
G1 X118.461 Y133.839 E6.04182
G1 X117.702 Y133.719 E6.05627
G1 X116.939 Y133.515 E6.07113
G1 X116.665 Y133.426 E6.07655
G1 X116.673 Y133.584 E6.07953
G1 X116.633 Y134.358 E6.09411
G1 X116.524 Y135.399 E6.11379
G1 X116.404 Y136.158 E6.12825
G1 X116.2 Y136.919 E6.14307
G1 X115.877 Y137.911 E6.16269
G1 X115.602 Y138.629 E6.17716
G1 X115.434 Y138.98 E6.18448
G1 X115.196 Y139.447 E6.19434
G1 X114.812 Y140.113 E6.2088
G1 X114.589 Y140.438 E6.21621
G1 X113.974 Y141.284 E6.23588
G1 X113.49 Y141.882 E6.25036
G1 X112.941 Y142.431 E6.26496
G1 X112.164 Y143.131 E6.28463
G1 X111.567 Y143.615 E6.29909
G1 X110.914 Y144.04 E6.31375
G1 X110.011 Y144.562 E6.33337
G1 X109.326 Y144.911 E6.34783
G1 X108.601 Y145.191 E6.36245
G1 X107.607 Y145.515 E6.38211
G1 X106.865 Y145.715 E6.39657
G1 X106.085 Y145.839 E6.41142
G1 X105.044 Y145.948 E6.43111
G1 X104.276 Y145.988 E6.44558
G1 X103.502 Y145.948 E6.46016
G1 X102.461 Y145.839 E6.47985
G1 X101.702 Y145.719 E6.4943
G1 X100.939 Y145.515 E6.50916
G1 X99.945 Y145.191 E6.52882
G1 X99.227 Y144.915 E6.54329
G1 X98.535 Y144.562 E6.55791
G1 X97.632 Y144.04 E6.57753
G1 X97.273 Y143.807 E6.58558
G1 X96.914 Y144.04 E6.59363
G1 X96.011 Y144.562 E6.61325
G1 X95.326 Y144.911 E6.62771
G1 X94.601 Y145.191 E6.64233
G1 X93.607 Y145.515 E6.66199
G1 X92.865 Y145.715 E6.67645
G1 X92.085 Y145.839 E6.69131
G1 X91.044 Y145.948 E6.71099
G1 X90.276 Y145.988 E6.72546
G1 X89.502 Y145.948 E6.74004
G1 X88.461 Y145.839 E6.75973
G1 X87.702 Y145.719 E6.77418
G1 X86.939 Y145.515 E6.78904
G1 X85.945 Y145.191 E6.8087
G1 X85.227 Y144.915 E6.82317
G1 X84.535 Y144.562 E6.83779
G1 X83.632 Y144.04 E6.85741
G1 X82.987 Y143.621 E6.87187
G1 X82.385 Y143.134 E6.88644
G1 X81.607 Y142.434 E6.90613
G1 X81.063 Y141.891 E6.92058
G1 X80.802 Y141.585 E6.92815
G1 X80.473 Y141.178 E6.93799
G1 X80.021 Y140.556 E6.95246
G1 X79.819 Y140.226 E6.95974
G1 X79.296 Y139.32 E6.97941
G1 X78.947 Y138.634 E6.99389
G1 X78.669 Y137.911 E7.00846
G1 X78.346 Y136.919 E7.02809
G1 X78.146 Y136.176 E7.04256
G1 X78.022 Y135.4 E7.05734
G1 X77.913 Y134.361 E7.07699
G1 X77.873 Y133.593 E7.09146
G1 X77.913 Y132.819 E7.10604
G1 X78.022 Y131.777 E7.12575
G1 X78.142 Y131.017 E7.14022
G1 X78.346 Y130.256 E7.15504
G1 X78.669 Y129.264 E7.17466
G1 X78.944 Y128.546 E7.18913
G1 X79.298 Y127.852 E7.20378
G1 X79.821 Y126.947 E7.22344
G1 X80.24 Y126.302 E7.23791
G1 X80.723 Y125.704 E7.25237
G1 X81.422 Y124.926 E7.27205
G1 X81.934 Y124.413 E7.28568
G1 X81.819 Y124.226 E7.28981
G1 X81.296 Y123.32 E7.30949
G1 X80.947 Y122.634 E7.32396
G1 X80.669 Y121.911 E7.33854
G1 X80.346 Y120.919 E7.35816
G1 X80.146 Y120.176 E7.37263
G1 X80.022 Y119.4 E7.38742
G1 X79.913 Y118.361 E7.40707
G1 X79.873 Y117.593 E7.42153
G1 X79.913 Y116.819 E7.43611
G1 X80.022 Y115.777 E7.45582
G1 X80.142 Y115.017 E7.47029
G1 X80.346 Y114.256 E7.48511
G1 X80.643 Y113.343 E7.50317
G1 X80.385 Y113.134 E7.50942
G1 X79.607 Y112.434 E7.5291
G1 X79.063 Y111.891 E7.54356
G1 X78.802 Y111.585 E7.55113
G1 X78.473 Y111.178 E7.56097
G1 X78.021 Y110.556 E7.57544
G1 X77.819 Y110.226 E7.58271
G1 X77.296 Y109.32 E7.60239
G1 X76.947 Y108.634 E7.61687
G1 X76.669 Y107.911 E7.63144
G1 X76.346 Y106.919 E7.65107
G1 X76.146 Y106.176 E7.66554
G1 X76.022 Y105.4 E7.68032
G1 X75.913 Y104.361 E7.69997
G1 X75.873 Y103.593 E7.71444
G1 X75.913 Y102.819 E7.72902
G1 X76.022 Y101.777 E7.74873
G1 X76.142 Y101.017 E7.7632
G1 X76.346 Y100.256 E7.77802
G1 X76.669 Y99.264 E7.79764
G1 X76.944 Y98.546 E7.81211
G1 X77.298 Y97.852 E7.82676
G1 X77.821 Y96.947 E7.84642
G1 X78.24 Y96.302 E7.86089
G1 X78.723 Y95.704 E7.87535
G1 X79.422 Y94.926 E7.89502
G1 X79.965 Y94.382 E7.90948
G1 X80.282 Y94.112 E7.91731
G1 X80.69 Y93.783 E7.92717
G1 X81.632 Y93.136 E7.94867
G1 X82.535 Y92.614 E7.96829
G1 X83.22 Y92.265 E7.98275
G1 X83.945 Y91.985 E7.99737
G1 X84.107 Y91.932 E8.00058
G1 X84.022 Y91.4 E8.01071
G1 X83.913 Y90.361 E8.03036
G1 X83.873 Y89.593 E8.04483
G1 X83.913 Y88.819 E8.05941
G1 X84.022 Y87.777 E8.07911
G1 X84.142 Y87.017 E8.09359
G1 X84.346 Y86.256 E8.10841
G1 X84.669 Y85.264 E8.12803
G1 X84.944 Y84.546 E8.1425
G1 X85.298 Y83.852 E8.15715
